X: 24253
T: Lord Rossmore's Tally-Ho In The Morning
R: jig
M: 6/8
K: Ddorian
dc|:ADD D3|E3 c2 e/d/|cBA AGF|EFD E3|
ADD D3|EFE c3|B/c/dA GFE|1 D3 D2c:|2 D3 D2 d||
dAd dfd|ecA A2B|ced cBA|GED c3|
ADD D3|E3 c3|B/c/dA GFE|1 D3 D2d:|2 D3 z3||

